X:1
T:Salford, 86.68.86
T:Salford, 86.68.86
T:Wyeth’s Repository of Sacred Music, 1813
T:Public Domain Courtesy of the Cyber Hymnal™
C:Wyeth’s Repository of Sacred Music, 1813
Z:Public Domain
Z:Courtesy of the Cyber Hymnal™
%%score ( 1 2 ) ( 3 4 )
L:1/8
Q:1/4=130
M:2/2
K:C
V:1 treble 
V:2 treble 
V:3 bass 
V:4 bass 
V:1
 [CA]4 [CE]2 [Cc]2 | [EB]4 [Ee]4 | ([FA]2 [Ac]2) ([GB]2 [FA]2) | [FA]4 [EG]4 | [Ge]4 [Gd]2 [Fc]2 | %5
 [EB]3 [Gd] [Ac]2 [GB]2 | [FA]2 [GB]2 [Ac]2 [GB]2 | [EA]8 | [Gc]4 G2 [B,F]2 | ([CE]3 D C4) | %10
 [Ge]4 [Bd]2 [Ac]2 | (BcdB G4) | [Gc]4 [GB]2 G2 | [FA]2 ([GB][Ac]) [Bd]2 [GB]2 | [Ac]4 [Bd]4 | %15
 [ce]3 [Bd] [Ac]3 [GB] | [Ac][ce][Bd][Af] [Ge]2 (AB) | [Ec]4 [^GB]4 | A8 |] %19
V:2
 x8 | x8 | x8 | x8 | x8 | x8 | x8 | x8 | x4 G2 x2 | x3 D C4 | x8 | G8 | x6 G2 | x8 | x8 | x8 | %16
 x6 E2 | x8 | A8 |] %19
V:3
 [A,E]4 [E,E]2 [C,E]2 | [E,E]4 E4 | [F,C]4 [D,D]4 | [E,E]8 | [C,C]4 [G,D]2 [A,E]2 | %5
 [E,E]3 [D,D] [C,C]2 [E,B,]2 | [A,C]2 D2 E2 [E,E]2 | [A,,E]8 | [C,E]4 [C,E]2 [D,D]2 | [C,E]8 | %10
 C4 G,2 [A,C]2 | [E,B,]8 | [C,E]4 [D,D]2 [E,B,]2 | [F,C]2 (B,C) [D,D]2 [G,D]2 | [C,E]4 [G,D]4 | %15
 C3 D E3 D | [F,C]2 [D,B,]2 [C,C]2 (CD) | [A,E]4 [E,E]4 | [A,,E]8 |] %19
V:4
 x8 | x4 E,2 C,2 | x8 | x8 | x8 | x8 | x2 (G,E,) (C,D,) x2 | x8 | x8 | x8 | C4 G,2 x2 | x8 | x8 | %13
 x2 E,2 x4 | x8 | C4 E,4 | x6 E,2 | x8 | x8 |] %19

